packages/core/src/svgs/gas.svg

<svg width="24" height="24" viewBox="0 0 24 24" fill="none" xmlns="http://www.w3.org/2000/svg">
<g clip-path="url(#clip0_31_10647)">
<path d="M0 0H24V24H0V0Z" fill="url(#paint0_linear_31_10647)"/>
<path d="M18.4286 16.7941L13.2857 14.4189V9.15864L18.4286 7.35178V16.7941ZM11.1429 19.2858L6 16.9689V7.5995L11.1429 9.91636V19.2858ZM11.1429 9.55207L6.19714 7.27164L13.4284 4.71436L18.3484 7.00207L11.1429 9.55207Z" fill="white"/>
</g>
<defs>
<linearGradient id="paint0_linear_31_10647" x1="0.533142" y1="20.5466" x2="15.4466" y2="5.47329" gradientUnits="userSpaceOnUse">
<stop stop-color="#BEEA2E"/>
<stop offset="1" stop-color="#52BA00"/>
</linearGradient>
<clipPath id="clip0_31_10647">
<rect width="24" height="24" fill="white"/>
</clipPath>
</defs>
</svg>

<svg xmlns="http://www.w3.org/2000/svg" width="24" height="24" fill="none" viewBox="0 0 24 24"><g clip-path="url(#a)"><path fill="url(#b)" d="M0 0h24v24H0z"/><path fill="#fff" d="m18.429 16.794-5.143-2.375v-5.26l5.143-1.807zm-7.286 2.492L6 16.969v-9.37l5.143 2.317zm0-9.734-4.946-2.28 7.231-2.558 4.92 2.288z"/></g><defs><linearGradient id="b" x1=".533" x2="15.447" y1="20.547" y2="5.473" gradientUnits="userSpaceOnUse"><stop stop-color="#BEEA2E"/><stop offset="1" stop-color="#52BA00"/></linearGradient><clipPath id="a"><path fill="#fff" d="M0 0h24v24H0z"/></clipPath></defs></svg>
